svg/color/gst.svg

<?xml version="1.0" encoding="UTF-8" ?>
<!DOCTYPE svg PUBLIC "-//W3C//DTD SVG 1.1//EN" "http://www.w3.org/Graphics/SVG/1.1/DTD/svg11.dtd">
<svg width="224pt" height="250pt" viewBox="0 0 224 250" version="1.1" xmlns="http://www.w3.org/2000/svg">
<g id="#ffffffff">
<path fill="#ffffff" opacity="1.00" d=" M 0.00 0.00 L 113.44 0.00 C 85.93 1.55 57.67 10.02 37.20 29.17 C 18.54 46.73 7.90 71.28 2.85 96.05 C 2.07 99.89 1.48 103.77 1.19 107.68 C 1.16 107.84 1.11 108.18 1.09 108.34 C 0.46 111.74 0.22 115.19 0.04 118.63 L 0.00 119.36 L 0.00 0.00 Z" />
<path fill="#ffffff" opacity="1.00" d=" M 127.73 0.00 L 224.00 0.00 L 224.00 107.35 C 204.82 110.42 185.58 113.19 166.37 116.12 C 156.83 117.48 147.32 119.02 137.78 120.43 C 124.38 122.41 110.99 124.50 97.62 126.72 C 104.55 132.13 111.88 137.01 118.97 142.21 C 117.07 143.12 115.16 144.01 113.19 144.75 C 104.18 148.40 95.26 152.28 86.23 155.88 C 78.35 159.12 70.50 162.42 62.64 165.70 C 42.69 173.84 22.79 182.15 2.94 190.54 C 22.42 186.47 41.96 182.75 61.45 178.74 C 73.04 176.28 84.69 174.14 96.27 171.64 C 105.88 169.72 115.50 167.80 125.11 165.84 C 138.49 163.05 151.93 160.48 165.32 157.69 C 159.92 153.06 152.72 150.89 147.67 145.89 C 154.72 145.10 161.69 143.71 168.69 142.63 C 176.66 141.55 184.55 139.93 192.54 139.04 C 192.51 142.10 192.51 145.16 192.54 148.21 C 192.51 158.82 192.64 169.43 192.46 180.04 C 191.98 188.96 190.60 198.60 184.55 205.60 C 181.39 209.42 176.88 211.67 172.40 213.55 C 170.15 214.35 167.92 215.21 165.64 215.92 C 159.80 217.64 153.81 218.78 147.78 219.53 C 131.90 221.27 115.64 222.33 99.92 218.76 C 89.41 216.42 79.20 212.49 70.01 206.83 C 62.32 202.10 55.86 195.62 50.36 188.50 C 39.60 190.91 28.75 192.93 17.94 195.15 C 23.94 206.76 33.04 216.64 43.23 224.73 C 64.60 241.12 91.59 249.01 118.28 250.00 L 0.00 250.00 L 0.00 132.66 C 0.18 135.51 0.37 138.36 0.62 141.20 C 2.08 154.24 4.96 167.18 9.95 179.34 C 19.82 175.32 29.67 171.23 39.51 167.13 C 36.59 158.78 34.92 150.05 33.91 141.28 C 33.04 133.15 33.20 124.96 33.27 116.79 C 33.46 113.82 33.63 110.84 34.03 107.89 C 34.62 103.16 35.38 98.45 36.49 93.81 C 37.81 88.08 39.64 82.49 41.74 77.01 C 45.41 67.75 50.87 59.28 57.41 51.78 C 72.43 35.38 95.05 27.88 116.87 27.47 C 133.51 26.77 150.79 29.95 164.89 39.15 C 175.30 45.98 182.85 56.12 189.57 66.39 C 194.08 73.48 196.78 81.53 198.58 89.70 C 203.60 89.70 208.62 89.70 213.63 89.69 C 213.56 70.47 213.66 51.24 213.54 32.02 C 213.47 27.48 210.01 23.79 206.01 22.09 C 181.55 10.19 155.20 0.65 127.73 0.00 Z" />
<path fill="#ffffff" opacity="1.00" d=" M 223.90 194.49 C 223.93 194.32 223.98 194.00 224.00 193.84 L 224.00 250.00 L 130.61 250.00 C 141.55 249.28 152.44 247.58 162.99 244.60 C 168.75 242.94 174.40 240.95 179.97 238.76 C 186.98 236.05 193.75 232.74 200.11 228.73 C 203.31 226.71 206.32 224.38 209.03 221.75 C 216.39 214.30 222.22 204.96 223.90 194.49 Z" />
</g>
<g id="#eaba1dff">
<path fill="#eaba1d" opacity="1.00" d=" M 113.44 0.00 L 127.73 0.00 C 155.20 0.65 181.55 10.19 206.01 22.09 C 210.01 23.79 213.47 27.48 213.54 32.02 C 213.66 51.24 213.56 70.47 213.63 89.69 C 208.62 89.70 203.60 89.70 198.58 89.70 C 196.78 81.53 194.08 73.48 189.57 66.39 C 182.85 56.12 175.30 45.98 164.89 39.15 C 150.79 29.95 133.51 26.77 116.87 27.47 C 95.05 27.88 72.43 35.38 57.41 51.78 C 42.21 53.73 29.09 63.54 19.57 75.12 C 14.67 80.87 11.06 87.55 7.68 94.27 C 5.10 98.55 4.54 103.86 1.19 107.68 C 1.48 103.77 2.07 99.89 2.85 96.05 C 7.90 71.28 18.54 46.73 37.20 29.17 C 57.67 10.02 85.93 1.55 113.44 0.00 Z" />
<path fill="#eaba1d" opacity="1.00" d=" M 192.54 148.21 C 203.37 143.81 213.63 138.10 224.00 132.73 L 224.00 193.84 C 223.98 194.00 223.93 194.32 223.90 194.49 C 217.20 200.24 210.19 205.97 201.65 208.78 C 198.47 209.85 195.27 210.86 192.00 211.63 C 185.52 212.67 179.00 214.36 172.40 213.55 C 176.88 211.67 181.39 209.42 184.55 205.60 C 190.60 198.60 191.98 188.96 192.46 180.04 C 192.64 169.43 192.51 158.82 192.54 148.21 Z" />
<path fill="#eaba1d" opacity="1.00" d=" M 17.94 195.15 C 28.75 192.93 39.60 190.91 50.36 188.50 C 55.86 195.62 62.32 202.10 70.01 206.83 C 79.20 212.49 89.41 216.42 99.92 218.76 C 115.64 222.33 131.90 221.27 147.78 219.53 C 149.44 224.39 152.57 228.51 155.11 232.91 C 157.68 236.84 159.81 241.10 162.99 244.60 C 152.44 247.58 141.55 249.28 130.61 250.00 L 118.28 250.00 C 91.59 249.01 64.60 241.12 43.23 224.73 C 33.04 216.64 23.94 206.76 17.94 195.15 Z" />
</g>
<g id="#a97422ff">
<path fill="#a97422" opacity="1.00" d=" M 19.57 75.12 C 29.09 63.54 42.21 53.73 57.41 51.78 C 50.87 59.28 45.41 67.75 41.74 77.01 C 34.83 75.18 27.59 76.16 20.58 76.69 C 20.33 76.30 19.82 75.51 19.57 75.12 Z" />
</g>
<g id="#b88220ff">
<path fill="#b88220" opacity="1.00" d=" M 7.68 94.27 C 11.06 87.55 14.67 80.87 19.57 75.12 C 19.82 75.51 20.33 76.30 20.58 76.69 C 27.59 76.16 34.83 75.18 41.74 77.01 C 39.64 82.49 37.81 88.08 36.49 93.81 C 27.56 96.03 18.37 94.38 9.32 95.30 C 8.59 95.35 8.04 95.01 7.68 94.27 Z" />
</g>
<g id="#c6921fff">
<path fill="#c6921f" opacity="1.00" d=" M 1.19 107.68 C 4.54 103.86 5.10 98.55 7.68 94.27 C 8.04 95.01 8.59 95.35 9.32 95.30 C 18.37 94.38 27.56 96.03 36.49 93.81 C 35.38 98.45 34.62 103.16 34.03 107.89 C 33.38 108.89 32.79 109.99 31.84 110.75 C 26.63 111.44 21.34 110.48 16.13 111.28 C 11.64 111.98 7.08 112.19 2.55 111.69 C 2.18 110.85 1.45 109.18 1.09 108.34 C 1.11 108.18 1.16 107.84 1.19 107.68 Z" />
</g>
<g id="#ebbc23ff">
<path fill="#ebbc23" opacity="1.00" d=" M 166.37 116.12 C 185.58 113.19 204.82 110.42 224.00 107.35 L 224.00 107.70 C 206.73 115.98 189.71 124.76 172.52 133.21 C 170.57 127.48 167.87 122.01 166.37 116.12 Z" />
</g>
<g id="#d09e1eff">
<path fill="#d09e1e" opacity="1.00" d=" M 31.84 110.75 C 32.79 109.99 33.38 108.89 34.03 107.89 C 33.63 110.84 33.46 113.82 33.27 116.79 C 32.67 118.48 32.00 120.15 31.39 121.85 C 21.44 122.27 11.43 122.24 1.48 121.86 C 1.12 121.05 0.40 119.44 0.04 118.63 C 0.22 115.19 0.46 111.74 1.09 108.34 C 1.45 109.18 2.18 110.85 2.55 111.69 C 7.08 112.19 11.64 111.98 16.13 111.28 C 21.34 110.48 26.63 111.44 31.84 110.75 Z" />
</g>
<g id="#ab7521ff">
<path fill="#ab7521" opacity="1.00" d=" M 172.52 133.21 C 189.71 124.76 206.73 115.98 224.00 107.70 L 224.00 112.98 C 214.94 117.53 206.22 122.72 197.03 127.03 C 189.37 130.58 182.16 135.00 174.55 138.66 C 172.41 139.68 170.43 141.01 168.69 142.63 C 161.69 143.71 154.72 145.10 147.67 145.89 L 147.48 145.66 C 155.88 141.61 164.16 137.34 172.52 133.21 Z" />
</g>
<g id="#be8a20ff">
<path fill="#be8a20" opacity="1.00" d=" M 197.03 127.03 C 206.22 122.72 214.94 117.53 224.00 112.98 L 224.00 122.99 C 218.47 126.78 212.07 129.00 206.32 132.41 C 201.88 134.90 197.53 137.77 192.54 139.04 C 184.55 139.93 176.66 141.55 168.69 142.63 C 170.43 141.01 172.41 139.68 174.55 138.66 C 182.16 135.00 189.37 130.58 197.03 127.03 Z" />
</g>
<g id="#dbaa1eff">
<path fill="#dbaa1e" opacity="1.00" d=" M 31.39 121.85 C 32.00 120.15 32.67 118.48 33.27 116.79 C 33.20 124.96 33.04 133.15 33.91 141.28 C 26.67 142.43 19.32 141.77 12.03 141.95 C 8.21 142.06 4.37 141.99 0.62 141.20 C 0.37 138.36 0.18 135.51 0.00 132.66 L 0.00 119.36 L 0.04 118.63 C 0.40 119.44 1.12 121.05 1.48 121.86 C 11.43 122.24 21.44 122.27 31.39 121.85 Z" />
</g>
<g id="#edc135ff">
<path fill="#edc135" opacity="1.00" d=" M 137.78 120.43 C 147.32 119.02 156.83 117.48 166.37 116.12 C 167.87 122.01 170.57 127.48 172.52 133.21 C 164.16 137.34 155.88 141.61 147.48 145.66 C 143.92 137.38 140.92 128.87 137.78 120.43 Z" />
</g>
<g id="#eec744ff">
<path fill="#eec744" opacity="1.00" d=" M 97.62 126.72 C 110.99 124.50 124.38 122.41 137.78 120.43 C 140.92 128.87 143.92 137.38 147.48 145.66 L 147.67 145.89 C 152.72 150.89 159.92 153.06 165.32 157.69 C 151.93 160.48 138.49 163.05 125.11 165.84 C 123.72 165.02 121.77 164.51 121.53 162.64 C 120.36 158.64 118.57 154.88 117.06 151.01 C 116.10 148.74 115.65 145.92 113.19 144.75 C 115.16 144.01 117.07 143.12 118.97 142.21 C 111.88 137.01 104.55 132.13 97.62 126.72 Z" />
</g>
<g id="#d7a61eff">
<path fill="#d7a61e" opacity="1.00" d=" M 206.32 132.41 C 212.07 129.00 218.47 126.78 224.00 122.99 L 224.00 132.73 C 213.63 138.10 203.37 143.81 192.54 148.21 C 192.51 145.16 192.51 142.10 192.54 139.04 C 197.53 137.77 201.88 134.90 206.32 132.41 Z" />
</g>
<g id="#e9b91dff">
<path fill="#e9b91d" opacity="1.00" d=" M 0.62 141.20 C 4.37 141.99 8.21 142.06 12.03 141.95 C 19.32 141.77 26.67 142.43 33.91 141.28 C 34.92 150.05 36.59 158.78 39.51 167.13 C 29.67 171.23 19.82 175.32 9.95 179.34 C 4.96 167.18 2.08 154.24 0.62 141.20 Z" />
</g>
<g id="#f0cc54ff">
<path fill="#f0cc54" opacity="1.00" d=" M 86.23 155.88 C 95.26 152.28 104.18 148.40 113.19 144.75 C 115.65 145.92 116.10 148.74 117.06 151.01 C 118.57 154.88 120.36 158.64 121.53 162.64 C 121.77 164.51 123.72 165.02 125.11 165.84 C 115.50 167.80 105.88 169.72 96.27 171.64 C 94.97 171.32 93.68 170.95 92.38 170.59 C 89.93 166.18 88.10 161.44 87.15 156.48 C 86.92 156.33 86.46 156.03 86.23 155.88 Z" />
</g>
<g id="#f3d264ff">
<path fill="#f3d264" opacity="1.00" d=" M 62.64 165.70 C 70.50 162.42 78.35 159.12 86.23 155.88 C 86.46 156.03 86.92 156.33 87.15 156.48 C 88.10 161.44 89.93 166.18 92.38 170.59 C 93.68 170.95 94.97 171.32 96.27 171.64 C 84.69 174.14 73.04 176.28 61.45 178.74 C 61.66 175.81 60.26 173.15 59.45 170.42 C 60.66 168.95 61.78 167.40 62.64 165.70 Z" />
</g>
<g id="#f4d773ff">
<path fill="#f4d773" opacity="1.00" d=" M 2.94 190.54 C 22.79 182.15 42.69 173.84 62.64 165.70 C 61.78 167.40 60.66 168.95 59.45 170.42 C 60.26 173.15 61.66 175.81 61.45 178.74 C 41.96 182.75 22.42 186.47 2.94 190.54 Z" />
</g>
<g id="#b17620ff">
<path fill="#b17620" opacity="1.00" d=" M 201.65 208.78 C 210.19 205.97 217.20 200.24 223.90 194.49 C 222.22 204.96 216.39 214.30 209.03 221.75 C 205.37 218.65 203.69 214.01 200.66 210.39 C 200.91 209.98 201.41 209.18 201.65 208.78 Z" />
</g>
<g id="#bf8720ff">
<path fill="#bf8720" opacity="1.00" d=" M 192.00 211.63 C 195.27 210.86 198.47 209.85 201.65 208.78 C 201.41 209.18 200.91 209.98 200.66 210.39 C 203.69 214.01 205.37 218.65 209.03 221.75 C 206.32 224.38 203.31 226.71 200.11 228.73 C 196.74 223.70 193.53 218.56 190.31 213.43 C 190.73 212.98 191.58 212.08 192.00 211.63 Z" />
</g>
<g id="#d09b1fff">
<path fill="#d09b1f" opacity="1.00" d=" M 172.40 213.55 C 179.00 214.36 185.52 212.67 192.00 211.63 C 191.58 212.08 190.73 212.98 190.31 213.43 C 193.53 218.56 196.74 223.70 200.11 228.73 C 193.75 232.74 186.98 236.05 179.97 238.76 C 177.72 237.40 176.09 235.36 174.99 233.00 C 172.10 227.17 167.41 222.28 165.64 215.92 C 167.92 215.21 170.15 214.35 172.40 213.55 Z" />
</g>
<g id="#e0af1eff">
<path fill="#e0af1e" opacity="1.00" d=" M 147.78 219.53 C 153.81 218.78 159.80 217.64 165.64 215.92 C 167.41 222.28 172.10 227.17 174.99 233.00 C 176.09 235.36 177.72 237.40 179.97 238.76 C 174.40 240.95 168.75 242.94 162.99 244.60 C 159.81 241.10 157.68 236.84 155.11 232.91 C 152.57 228.51 149.44 224.39 147.78 219.53 Z" />
</g>
</svg>

<?xml version="1.0" encoding="utf-8"?>
<!-- Generator: Adobe Illustrator 26.0.3, SVG Export Plug-In . SVG Version: 6.00 Build 0)  -->
<svg version="1.1" id="Layer_1" xmlns="http://www.w3.org/2000/svg" xmlns:xlink="http://www.w3.org/1999/xlink" x="0px" y="0px"
	 viewBox="0 0 224 250" style="enable-background:new 0 0 224 250;" xml:space="preserve">
<style type="text/css">
	.st0{fill:#EABA1D;}
	.st1{fill:#A97422;}
	.st2{fill:#B88220;}
	.st3{fill:#C6921F;}
	.st4{fill:#EBBC23;}
	.st5{fill:#D09E1E;}
	.st6{fill:#AB7521;}
	.st7{fill:#BE8A20;}
	.st8{fill:#DBAA1E;}
	.st9{fill:#EDC135;}
	.st10{fill:#EEC744;}
	.st11{fill:#D7A61E;}
	.st12{fill:#E9B91D;}
	.st13{fill:#F0CC54;}
	.st14{fill:#F3D264;}
	.st15{fill:#F4D773;}
	.st16{fill:#B17620;}
	.st17{fill:#BF8720;}
	.st18{fill:#D09B1F;}
	.st19{fill:#E0AF1E;}
</style>
<g id="_x23_eaba1dff">
	<path class="st0" d="M113.4,0h14.3c27.5,0.6,53.8,10.2,78.3,22.1c4,1.7,7.5,5.4,7.5,9.9c0.1,19.2,0,38.5,0.1,57.7c-5,0-10,0-15.1,0
		c-1.8-8.2-4.5-16.2-9-23.3c-6.7-10.3-14.3-20.4-24.7-27.2c-14.1-9.2-31.4-12.4-48-11.7c-21.8,0.4-44.4,7.9-59.5,24.3
		c-15.2,2-28.3,11.8-37.8,23.3c-4.9,5.8-8.5,12.4-11.9,19.1c-2.6,4.3-3.1,9.6-6.5,13.4c0.3-3.9,0.9-7.8,1.7-11.6
		c5.1-24.8,15.7-49.3,34.4-66.9C57.7,10,85.9,1.5,113.4,0z"/>
	<path class="st0" d="M192.5,148.2c10.8-4.4,21.1-10.1,31.5-15.5v61.1c0,0.2-0.1,0.5-0.1,0.7c-6.7,5.8-13.7,11.5-22.2,14.3
		c-3.2,1.1-6.4,2.1-9.6,2.9c-6.5,1-13,2.7-19.6,1.9c4.5-1.9,9-4.1,12.2-7.9c6.1-7,7.4-16.6,7.9-25.6
		C192.6,169.4,192.5,158.8,192.5,148.2z"/>
	<path class="st0" d="M17.9,195.1c10.8-2.2,21.7-4.2,32.4-6.6c5.5,7.1,12,13.6,19.7,18.3c9.2,5.7,19.4,9.6,29.9,11.9
		c15.7,3.6,32,2.5,47.9,0.8c1.7,4.9,4.8,9,7.3,13.4c2.6,3.9,4.7,8.2,7.9,11.7c-10.6,3-21.4,4.7-32.4,5.4h-12.3
		c-26.7-1-53.7-8.9-75.1-25.3C33,216.6,23.9,206.8,17.9,195.1z"/>
</g>
<g id="_x23_a97422ff">
	<path class="st1" d="M19.6,75.1c9.5-11.6,22.6-21.4,37.8-23.3c-6.5,7.5-12,16-15.7,25.2c-6.9-1.8-14.2-0.8-21.2-0.3
		C20.3,76.3,19.8,75.5,19.6,75.1z"/>
</g>
<g id="_x23_b88220ff">
	<path class="st2" d="M7.7,94.3c3.4-6.7,7-13.4,11.9-19.1c0.2,0.4,0.8,1.2,1,1.6c7-0.5,14.3-1.5,21.2,0.3
		c-2.1,5.5-3.9,11.1-5.2,16.8c-8.9,2.2-18.1,0.6-27.2,1.5C8.6,95.3,8,95,7.7,94.3z"/>
</g>
<g id="_x23_c6921fff">
	<path class="st3" d="M1.2,107.7c3.3-3.8,3.9-9.1,6.5-13.4c0.4,0.7,0.9,1.1,1.6,1c9.1-0.9,18.2,0.7,27.2-1.5
		c-1.1,4.6-1.9,9.4-2.5,14.1c-0.6,1-1.2,2.1-2.2,2.9c-5.2,0.7-10.5-0.3-15.7,0.5c-4.5,0.7-9,0.9-13.6,0.4c-0.4-0.8-1.1-2.5-1.5-3.4
		C1.1,108.2,1.2,107.8,1.2,107.7z"/>
</g>
<g id="_x23_ebbc23ff">
	<path class="st4" d="M166.4,116.1c19.2-2.9,38.5-5.7,57.6-8.8v0.3c-17.3,8.3-34.3,17.1-51.5,25.5
		C170.6,127.5,167.9,122,166.4,116.1z"/>
</g>
<g id="_x23_d09e1eff">
	<path class="st5" d="M31.8,110.8c1-0.8,1.5-1.9,2.2-2.9c-0.4,2.9-0.6,5.9-0.8,8.9c-0.6,1.7-1.3,3.4-1.9,5.1c-9.9,0.4-20,0.4-29.9,0
		c-0.4-0.8-1.1-2.4-1.4-3.2c0.2-3.4,0.4-6.9,1.1-10.3c0.4,0.8,1.1,2.5,1.5,3.4c4.5,0.5,9.1,0.3,13.6-0.4
		C21.3,110.5,26.6,111.4,31.8,110.8z"/>
</g>
<g id="_x23_ab7521ff">
	<path class="st6" d="M172.5,133.2c17.2-8.5,34.2-17.2,51.5-25.5v5.3c-9.1,4.5-17.8,9.7-27,14c-7.7,3.6-14.9,8-22.5,11.6
		c-2.1,1-4.1,2.3-5.9,4c-7,1.1-14,2.5-21,3.3l-0.2-0.2C155.9,141.6,164.2,137.3,172.5,133.2z"/>
</g>
<g id="_x23_be8a20ff">
	<path class="st7" d="M197,127c9.2-4.3,17.9-9.5,27-14v10c-5.5,3.8-11.9,6-17.7,9.4c-4.4,2.5-8.8,5.4-13.8,6.6
		c-8,0.9-15.9,2.5-23.8,3.6c1.7-1.6,3.7-3,5.9-4C182.2,135,189.4,130.6,197,127z"/>
</g>
<g id="_x23_dbaa1eff">
	<path class="st8" d="M31.4,121.8c0.6-1.7,1.3-3.4,1.9-5.1c-0.1,8.2-0.2,16.4,0.6,24.5c-7.2,1.1-14.6,0.5-21.9,0.7
		c-3.8,0.1-7.7,0-11.4-0.8c-0.2-2.8-0.4-5.7-0.6-8.5v-13.3l0-0.7c0.4,0.8,1.1,2.4,1.4,3.2C11.4,122.2,21.4,122.3,31.4,121.8z"/>
</g>
<g id="_x23_edc135ff">
	<path class="st9" d="M137.8,120.4c9.5-1.4,19.1-2.9,28.6-4.3c1.5,5.9,4.2,11.4,6.2,17.1c-8.4,4.1-16.6,8.4-25,12.4
		C143.9,137.4,140.9,128.9,137.8,120.4z"/>
</g>
<g id="_x23_eec744ff">
	<path class="st10" d="M97.6,126.7c13.4-2.2,26.8-4.3,40.2-6.3c3.1,8.4,6.1,17,9.7,25.2l0.2,0.2c5.1,5,12.2,7.2,17.7,11.8
		c-13.4,2.8-26.8,5.4-40.2,8.1c-1.4-0.8-3.3-1.3-3.6-3.2c-1.2-4-3-7.8-4.5-11.6c-1-2.3-1.4-5.1-3.9-6.3c2-0.7,3.9-1.6,5.8-2.5
		C111.9,137,104.6,132.1,97.6,126.7z"/>
</g>
<g id="_x23_d7a61eff">
	<path class="st11" d="M206.3,132.4c5.8-3.4,12.1-5.6,17.7-9.4v9.7c-10.4,5.4-20.6,11.1-31.5,15.5c0-3.1,0-6.1,0-9.2
		C197.5,137.8,201.9,134.9,206.3,132.4z"/>
</g>
<g id="_x23_e9b91dff">
	<path class="st12" d="M0.6,141.2c3.8,0.8,7.6,0.9,11.4,0.8c7.3-0.2,14.6,0.5,21.9-0.7c1,8.8,2.7,17.5,5.6,25.9
		c-9.8,4.1-19.7,8.2-29.6,12.2C5,167.2,2.1,154.2,0.6,141.2z"/>
</g>
<g id="_x23_f0cc54ff">
	<path class="st13" d="M86.2,155.9c9-3.6,17.9-7.5,27-11.1c2.5,1.2,2.9,4,3.9,6.3c1.5,3.9,3.3,7.6,4.5,11.6c0.2,1.9,2.2,2.4,3.6,3.2
		c-9.6,2-19.2,3.9-28.8,5.8c-1.3-0.3-2.6-0.7-3.9-1.1c-2.4-4.4-4.3-9.1-5.2-14.1C86.9,156.3,86.5,156,86.2,155.9z"/>
</g>
<g id="_x23_f3d264ff">
	<path class="st14" d="M62.6,165.7c7.9-3.3,15.7-6.6,23.6-9.8c0.2,0.1,0.7,0.4,0.9,0.6c0.9,5,2.8,9.7,5.2,14.1
		c1.3,0.4,2.6,0.7,3.9,1.1c-11.6,2.5-23.2,4.6-34.8,7.1c0.2-2.9-1.2-5.6-2-8.3C60.7,168.9,61.8,167.4,62.6,165.7z"/>
</g>
<g id="_x23_f4d773ff">
	<path class="st15" d="M2.9,190.5c19.9-8.4,39.8-16.7,59.7-24.8c-0.9,1.7-2,3.2-3.2,4.7c0.8,2.7,2.2,5.4,2,8.3
		C42,182.8,22.4,186.5,2.9,190.5z"/>
</g>
<g id="_x23_b17620ff">
	<path class="st16" d="M201.6,208.8c8.5-2.8,15.6-8.5,22.2-14.3c-1.7,10.5-7.5,19.8-14.9,27.3c-3.7-3.1-5.3-7.7-8.4-11.4
		C200.9,210,201.4,209.2,201.6,208.8z"/>
</g>
<g id="_x23_bf8720ff">
	<path class="st17" d="M192,211.6c3.3-0.8,6.5-1.8,9.6-2.9c-0.2,0.4-0.7,1.2-1,1.6c3,3.6,4.7,8.3,8.4,11.4c-2.7,2.6-5.7,5-8.9,7
		c-3.4-5-6.6-10.2-9.8-15.3C190.7,213,191.6,212.1,192,211.6z"/>
</g>
<g id="_x23_d09b1fff">
	<path class="st18" d="M172.4,213.6c6.6,0.8,13.1-0.9,19.6-1.9c-0.4,0.4-1.3,1.3-1.7,1.8c3.2,5.1,6.4,10.3,9.8,15.3
		c-6.4,4-13.1,7.3-20.1,10c-2.2-1.4-3.9-3.4-5-5.8c-2.9-5.8-7.6-10.7-9.4-17.1C167.9,215.2,170.1,214.4,172.4,213.6z"/>
</g>
<g id="_x23_e0af1eff">
	<path class="st19" d="M147.8,219.5c6-0.8,12-1.9,17.9-3.6c1.8,6.4,6.5,11.2,9.4,17.1c1.1,2.4,2.7,4.4,5,5.8
		c-5.6,2.2-11.2,4.2-17,5.8c-3.2-3.5-5.3-7.8-7.9-11.7C152.6,228.5,149.4,224.4,147.8,219.5z"/>
</g>
</svg>
